X: 6359
T: Casey's Pig
R: hornpipe
M: 4/4
K: Gmajor
D<GGD EDG2|BdgB A2 A2|{F}G2 GD EDG2|E<GDB, G,2 G,>E|
D<GGD EDG2|BdgB {d}cBAB|G2 GD EDG2|E<GDB, G2 G2|
gabg d2 d2|gabg e_e=ef|gbeg dgB2|A_A=AB G2 G>B|
ga b/a/g d2 Bd|gabg [c2e2] [c2e]|g/b/g e/g/e dg B2|A_A=AB G2 GE||

